X:1
T:Title
%%score ( 1 2 ) { 3 | 4 }
L:1/8
Q:1/4=115
M:4/4
K:C
V:1 treble nm="Grand Piano, Soprano"
V:2 treble 
V:3 bass nm="Choir Pad, Faneuil Hall, 12.12.88"
V:4 bass 
V:1
 G2 [Ec]2 [Ec]2 [Ec]2 | [Ec]2 [Gd]6 | [Gd]2 [Ge]2 [Gc]2 A2 | [Ad]2 c4 B2 | GA [GB]2 [Gc]2 [Gd]2 | %5
w: By~Franz~J.~Haydn,~1798,~arr~Charles~Case,~1902 * * *|||||
 [Ge]2 [Gf]6 | [Ge]2 [Ad]2 [Fd]2 [Ec]2 | [FB]2 [Ec]6 | z2 f2 d2 [GB]2 | G2 [Gc]6 | %10
w: |||||
 [Gc]2 f2 d2 [GB]2 | G2 [Gc]6 | [EG]2 [FA]2 [GB]2 [Ac]2 | [Bd]2 [ce]6 | [Af]2 [Ge]2 [Fd]2 [Ec]2 | %15
w: |||||
 [FB]2 [Ec]6- | [Ec]2 z2 z4 |] %17
w: ||
V:2
 x8 | x8 | x8 | z2 G6 | x8 | x8 | x8 | x8 | z2 B4 z2 | x8 | z2 B4 z2 | x8 | x8 | x8 | x8 | x8 | %16
 x8 |] %17
V:3
 G,2 G,2 G,2 C2 | C2 B,6 | D2 C2 C2 C2 | F2 E4 D2 | G,2 D2 C2 B,2 | C2 D6 | C2[K:bass] C2 A,2 G,2 | %7
 G,2 G,6 | z2[K:treble] D4 D2 | B,2 E2 C2 G,2 | E2 D4 D2 | B,2 E2 C2[K:bass] G,2 | G,2 A,2 B,2 C2 | %13
 D2 E6 | C2 C2 B,2 C2 | G,2 G,6- | G,2 z2 z4 |] %17
V:4
 z2 C,2 C,2 C,2 | C,2 G,,6 | B,,2 B,,2 E,2 F,2 | D,2 G,6 | z2 F,2 E,2 D,2 | C,2 B,,6 | %6
 C,2 F,2 F,2 z2 | z2 C,6 | z2 G,4 G,2 | G,2 C2 G,2 E,2 | C,2 G,4 G,2- | G,2 C2 G,2 E,2 | %12
 E,2 F,2 G,2 A,2 | B,2 C6 | F,2 G,4 G,2 | z2 C,6- | C,2 z2 z4 |] %17

